Newaita-dark/apps/24/sheets.svg

<svg height="24" width="24" xmlns="http://www.w3.org/2000/svg" xmlns:xlink="http://www.w3.org/1999/xlink"><linearGradient id="a" gradientUnits="userSpaceOnUse" x1="11.90752" x2="11.90752" y1="20.60248" y2="21.59478896"><stop offset="0" stop-opacity=".275"/><stop offset="1" stop-opacity="0"/></linearGradient><linearGradient id="b"><stop offset="0" stop-opacity=".314"/><stop offset=".222" stop-opacity=".275"/><stop offset="1" stop-opacity="0"/></linearGradient><radialGradient id="c" cx="450.909" cy="189.579" gradientTransform="matrix(0 -.0586 -.10548 0 38.602 47.274)" gradientUnits="userSpaceOnUse" r="21.167" xlink:href="#b"/><radialGradient id="d" cx="450.909" cy="189.579" gradientTransform="matrix(0 .0586 .10548 0 -14.787 -6.068)" gradientUnits="userSpaceOnUse" r="21.167" xlink:href="#b"/><radialGradient id="e" cx="450.909" cy="189.579" gradientTransform="matrix(0 -.0586 .10548 0 -14.787 47.274)" gradientUnits="userSpaceOnUse" r="21.167" xlink:href="#b"/><radialGradient id="f" cx="450.909" cy="189.579" gradientTransform="matrix(0 .0586 -.10548 0 38.602 -6.068)" gradientUnits="userSpaceOnUse" r="21.167" xlink:href="#b"/><linearGradient id="g"><stop offset="0" stop-color="#e0e0e0"/><stop offset="1" stop-color="#eee"/></linearGradient><linearGradient id="h" gradientTransform="matrix(.04688 0 0 -.04688 -10.915 13.118)" gradientUnits="userSpaceOnUse" x1="370.417" x2="370.417" xlink:href="#g" y1="-158.084" y2="222.916"/><linearGradient id="i" gradientTransform="matrix(.04688 0 0 -.04688 0 13.118)" gradientUnits="userSpaceOnUse" x1="391.583" x2="381" xlink:href="#g" y1="-158.084" y2="222.916"/><linearGradient id="j"><stop offset="0" stop-color="#42a5f5"/><stop offset="1" stop-color="#64b5f6"/></linearGradient><linearGradient id="k" gradientUnits="userSpaceOnUse" x1="11.90752" x2="11.90752" xlink:href="#j" y1="14.57658896" y2="2.66906896"/><linearGradient id="l" gradientUnits="userSpaceOnUse" x1="6.94628" x2="6.94628" xlink:href="#j" y1="14.57658896" y2="2.66906896"/><linearGradient id="m" gradientUnits="userSpaceOnUse" x1="18.10936896" x2="17.86128" xlink:href="#j" y1="11.59970896" y2="2.66906896"/><linearGradient id="n" gradientUnits="userSpaceOnUse" x1="11.90752" x2="11.90752" xlink:href="#g" y1="20.52894896" y2="2.66766896"/><linearGradient id="o" gradientUnits="userSpaceOnUse" x1="11.90752" x2="11.90752" xlink:href="#j" y1="14.57570896" y2="2.66818896"/><linearGradient id="p"><stop offset="0" stop-color="#ffa726"/><stop offset="1" stop-color="#ffb74d"/></linearGradient><linearGradient id="q" gradientUnits="userSpaceOnUse" x1="5.95352" x2="5.95352" xlink:href="#p" y1="20.52882896" y2="2.66754896"/><linearGradient id="r" gradientUnits="userSpaceOnUse" x1="11.90752" x2="11.90752" xlink:href="#g" y1="20.52882896" y2="2.66754896"/><linearGradient id="s" gradientUnits="userSpaceOnUse" x1="17.86152" x2="17.86152" xlink:href="#g" y1="20.52882896" y2="2.66754896"/><linearGradient id="t" gradientUnits="userSpaceOnUse" x1="5.95352" x2="5.95352" xlink:href="#j" y1="14.57594896" y2="2.66842896"/><linearGradient id="u" gradientUnits="userSpaceOnUse" x1="11.90752" x2="11.90752" xlink:href="#p" y1="20.52970896" y2="2.66842896"/><linearGradient id="v" gradientUnits="userSpaceOnUse" x1="17.86152" x2="17.86152" xlink:href="#g" y1="20.52970896" y2="2.66842896"/><linearGradient id="w" gradientUnits="userSpaceOnUse" x1="5.95352" x2="5.95352" xlink:href="#j" y1="14.57582896" y2="2.66830896"/><linearGradient id="x" gradientUnits="userSpaceOnUse" x1="11.90752" x2="11.90752" xlink:href="#j" y1="14.57582896" y2="2.66830896"/><linearGradient id="y" gradientUnits="userSpaceOnUse" x1="17.86152" x2="17.86152" xlink:href="#p" y1="20.52958896" y2="2.66830896"/><linearGradient id="z" gradientUnits="userSpaceOnUse" x1="17.86152" x2="17.86152" xlink:href="#j" y1="20.52946896" y2="2.66818896"/><linearGradient id="A" gradientUnits="userSpaceOnUse" x1="5.95352" x2="5.95352" xlink:href="#j" y1="14.57570896" y2="2.66818896"/><path d="m4.96 20.566h13.892v1.067h-13.892zm0 0" fill="url(#a)"/><path d="m18.852 20.602h1.988v-.993h-1.988zm0 0" fill="url(#c)"/><path d="m4.96 20.602h-1.982v.992h1.982zm0 0" fill="url(#d)"/><path d="m4.96 20.602h-1.982v-.993h1.982zm0 0" fill="url(#e)"/><path d="m18.852 20.602h1.988v.992h-1.988zm0 0" fill="url(#f)"/><path d="m3.969 20.531a.992.992 0 0 1 -.992-.996v-1.984h5.953v2.98zm0 0" fill="url(#h)"/><path d="m2.977 17.55v.376h5.953v-.375zm0 0" fill="#fff"/><path d="m14.883 20.531v-2.98h5.957v1.984c0 .55-.445.996-.996.996zm0 0" fill="url(#i)"/><path d="m8.93 2.668h5.953v2.977h-5.953zm0 0" fill="url(#k)"/><path d="m3.969 2.668a.989.989 0 0 0 -.992.992v1.985h5.953v-2.977zm0 0" fill="url(#l)"/><path d="m14.883 2.668v2.977h5.957v-1.985a.992.992 0 0 0 -.996-.992zm0 0" fill="url(#m)"/><path d="m8.93 17.55h5.953v2.981h-5.953zm0 0" fill="url(#n)"/><path d="m8.93 2.668v.371h5.953v-.371zm0 0" fill="#fff" fill-opacity=".392"/><path d="m19.844 20.531c.55 0 .996-.445.996-.996v-.37c0 .55-.445.991-.996.991h-4.961v.375zm0 0" fill-opacity=".235"/><path d="m14.883 17.55v.376h5.957v-.375zm0 0" fill="#fff"/><path d="m8.93 5.645h5.953v2.975h-5.953zm0 0" fill="url(#o)"/><path d="m2.977 14.574h5.953v2.977h-5.953zm0 0" fill="url(#q)"/><path d="m8.93 14.574h5.953v2.977h-5.953zm0 0" fill="url(#r)"/><path d="m14.883 14.574h5.957v2.977h-5.957zm0 0" fill="url(#s)"/><path d="m2.977 11.598h5.953v2.976h-5.953zm0 0" fill="url(#t)"/><path d="m8.93 11.598h5.953v2.976h-5.953zm0 0" fill="url(#u)"/><path d="m14.883 11.598h5.957v2.976h-5.957zm0 0" fill="url(#v)"/><path d="m14.883 11.598v.375h5.957v-.375zm0 0" fill="#fff"/><path d="m2.977 8.621h5.953v2.977h-5.953zm0 0" fill="url(#w)"/><path d="m8.93 8.621h5.953v2.977h-5.953zm0 0" fill="url(#x)"/><path d="m14.883 8.621h5.957v2.977h-5.957zm0 0" fill="url(#y)"/><path d="m14.883 5.645h5.957v2.975h-5.957zm0 0" fill="url(#z)"/><path d="m14.883 8.25v.371h5.957v-.371zm0 0" fill-opacity=".235"/><path d="m8.93 5.645v.37h5.953v-.37zm-5.953 2.976v.371h5.953v-.37zm0 0" fill="#fff" fill-opacity=".392"/><path d="m2.977 5.645h5.953v2.975h-5.953zm0 0" fill="url(#A)"/><path d="m19.844 2.668c.55 0 .996.441.996.992v.371a.994.994 0 0 0 -.996-.992h-4.961v-.371zm-15.875 0a.989.989 0 0 0 -.992.992v.371c0-.547.441-.992.992-.992h4.96v-.371zm-.992 2.977v.37h5.953v-.37zm5.953 2.976v.371h5.953v-.37zm-5.953 2.977v.375h5.953v-.375zm0 0" fill="#fff" fill-opacity=".392"/><path d="m2.977 14.203v.371h5.953v-.37zm5.953 6.328v-.375h5.953v.375zm-4.961 0a.992.992 0 0 1 -.992-.996v-.37c0 .55.441.991.992.991h4.96v.375zm0 0" fill-opacity=".235"/><path d="m2.977 14.574v.375h5.953v-.375zm0 0" fill="#fff" fill-opacity=".392"/><path d="m8.93 14.574v.375h5.953v-.375zm0 2.976v.376h5.953v-.375zm5.953-2.976v.375h5.957v-.375zm0 0" fill="#fff"/><path d="m14.883 5.273v.372h5.957v-.372zm0 0" fill-opacity=".235"/><path d="m14.883 5.645v.37h5.957v-.37zm0 2.976v.371h5.957v-.37zm0 0" fill="#fff" fill-opacity=".392"/><path d="m14.883 11.227v.37h5.957v-.37zm-5.953-5.954v.372h5.953v-.372zm-5.953 0v.372h5.953v-.372zm0 5.954v.37h5.953v-.37zm5.953 0v.37h5.953v-.37zm0-2.977v.371h5.953v-.371zm-5.953 0v.371h5.953v-.371zm5.953 5.953v.371h5.953v-.37zm0 2.977v.37h5.953v-.37zm-5.953 0v.37h5.953v-.37zm11.906 0v.37h5.957v-.37zm0-2.977v.371h5.957v-.37zm0 0" fill-opacity=".235"/><path d="m8.93 11.598v.375h5.953v-.375zm0 0" fill="#fff" fill-opacity=".392"/><path d="m2.977 5.645h5.953v2.975h-5.953zm11.906 0h5.957v2.975h-5.957zm0 2.976h5.957v2.977h-5.957zm-5.953 0h5.953v2.977h-5.953zm-5.953 0h5.953v2.977h-5.953zm11.906 2.977h5.957v2.976h-5.957zm-5.953 0h5.953v2.976h-5.953zm-5.953 0h5.953v2.976h-5.953zm11.906 2.976h5.957v2.977h-5.957zm-5.953 0h5.953v2.977h-5.953zm-5.953 0h5.953v2.977h-5.953zm5.953-8.93h5.953v2.977h-5.953zm0 11.907h5.953v2.98h-5.953zm5.953-14.883v2.977h5.957v-1.985a.992.992 0 0 0 -.996-.992zm-10.914 0a.989.989 0 0 0 -.992.992v1.985h5.953v-2.977zm4.96 0h5.954v2.977h-5.953zm5.954 17.863v-2.98h5.957v1.984c0 .55-.445.996-.996.996zm-10.914 0a.992.992 0 0 1 -.992-.996v-1.984h5.953v2.98zm0 0" fill="none" stroke="#212121" stroke-linecap="round" stroke-width=".14064"/></svg>

<svg xmlns="http://www.w3.org/2000/svg" width="24" height="24"><defs><linearGradient id="a" gradientUnits="userSpaceOnUse" x1="254" y1="233.5" x2="254" y2="254.667" gradientTransform="matrix(.04688 0 0 .04688 0 9.656)"><stop offset="0" stop-opacity=".275"/><stop offset="1" stop-opacity="0"/></linearGradient><radialGradient id="b" gradientUnits="userSpaceOnUse" cx="450.909" cy="189.579" fx="450.909" fy="189.579" r="21.167" gradientTransform="matrix(0 -.0586 -.10548 0 38.602 47.274)"><stop offset="0" stop-opacity=".314"/><stop offset=".222" stop-opacity=".275"/><stop offset="1" stop-opacity="0"/></radialGradient><radialGradient id="c" gradientUnits="userSpaceOnUse" cx="450.909" cy="189.579" fx="450.909" fy="189.579" r="21.167" gradientTransform="matrix(0 .0586 .10548 0 -14.787 -6.068)"><stop offset="0" stop-opacity=".314"/><stop offset=".222" stop-opacity=".275"/><stop offset="1" stop-opacity="0"/></radialGradient><radialGradient id="d" gradientUnits="userSpaceOnUse" cx="450.909" cy="189.579" fx="450.909" fy="189.579" r="21.167" gradientTransform="matrix(0 -.0586 .10548 0 -14.787 47.274)"><stop offset="0" stop-opacity=".314"/><stop offset=".222" stop-opacity=".275"/><stop offset="1" stop-opacity="0"/></radialGradient><radialGradient id="e" gradientUnits="userSpaceOnUse" cx="450.909" cy="189.579" fx="450.909" fy="189.579" r="21.167" gradientTransform="matrix(0 .0586 -.10548 0 38.602 -6.068)"><stop offset="0" stop-opacity=".314"/><stop offset=".222" stop-opacity=".275"/><stop offset="1" stop-opacity="0"/></radialGradient><linearGradient id="f" gradientUnits="userSpaceOnUse" x1="370.417" y1="-158.084" x2="370.417" y2="222.916" gradientTransform="matrix(.04688 0 0 -.04688 -10.915 13.118)"><stop offset="0" stop-color="#e0e0e0"/><stop offset="1" stop-color="#eee"/></linearGradient><linearGradient id="g" gradientUnits="userSpaceOnUse" x1="391.583" y1="-158.084" x2="381" y2="222.916" gradientTransform="matrix(.04688 0 0 -.04688 0 13.118)"><stop offset="0" stop-color="#e0e0e0"/><stop offset="1" stop-color="#eee"/></linearGradient><linearGradient id="h" gradientUnits="userSpaceOnUse" x1="254" y1="95.917" x2="254" y2="-158.083" gradientTransform="matrix(.04688 0 0 .04688 0 10.08)"><stop offset="0" stop-color="#42a5f5"/><stop offset="1" stop-color="#64b5f6"/></linearGradient><linearGradient id="i" gradientUnits="userSpaceOnUse" x1="381" y1="95.917" x2="381" y2="-158.083" gradientTransform="matrix(.04688 0 0 .04688 -10.915 10.08)"><stop offset="0" stop-color="#42a5f5"/><stop offset="1" stop-color="#64b5f6"/></linearGradient><linearGradient id="j" gradientUnits="userSpaceOnUse" x1="386.292" y1="32.417" x2="381" y2="-158.083" gradientTransform="matrix(.04688 0 0 .04688 0 10.08)"><stop offset="0" stop-color="#42a5f5"/><stop offset="1" stop-color="#64b5f6"/></linearGradient><linearGradient id="k" gradientUnits="userSpaceOnUse" x1="254" y1="-94.583" x2="254" y2="-475.583" gradientTransform="matrix(.04688 0 0 .04688 0 24.963)"><stop offset="0" stop-color="#e0e0e0"/><stop offset="1" stop-color="#eee"/></linearGradient><linearGradient id="l" gradientUnits="userSpaceOnUse" x1="254" y1="32.417" x2="254" y2="-221.583" gradientTransform="matrix(.04688 0 0 .04688 0 13.056)"><stop offset="0" stop-color="#42a5f5"/><stop offset="1" stop-color="#64b5f6"/></linearGradient><linearGradient id="m" gradientUnits="userSpaceOnUse" x1="254" y1="-31.083" x2="254" y2="-412.083" gradientTransform="matrix(.04688 0 0 .04688 -5.954 21.986)"><stop offset="0" stop-color="#ffa726"/><stop offset="1" stop-color="#ffb74d"/></linearGradient><linearGradient id="n" gradientUnits="userSpaceOnUse" x1="254" y1="-31.083" x2="254" y2="-412.083" gradientTransform="matrix(.04688 0 0 .04688 0 21.986)"><stop offset="0" stop-color="#e0e0e0"/><stop offset="1" stop-color="#eee"/></linearGradient><linearGradient id="o" gradientUnits="userSpaceOnUse" x1="254" y1="-31.083" x2="254" y2="-412.083" gradientTransform="matrix(.04688 0 0 .04688 5.954 21.986)"><stop offset="0" stop-color="#e0e0e0"/><stop offset="1" stop-color="#eee"/></linearGradient><linearGradient id="p" gradientUnits="userSpaceOnUse" x1="254" y1="-94.583" x2="254" y2="-348.583" gradientTransform="matrix(.04688 0 0 .04688 -5.954 19.01)"><stop offset="0" stop-color="#42a5f5"/><stop offset="1" stop-color="#64b5f6"/></linearGradient><linearGradient id="q" gradientUnits="userSpaceOnUse" x1="254" y1="32.417" x2="254" y2="-348.583" gradientTransform="matrix(.04688 0 0 .04688 0 19.01)"><stop offset="0" stop-color="#ffa726"/><stop offset="1" stop-color="#ffb74d"/></linearGradient><linearGradient id="r" gradientUnits="userSpaceOnUse" x1="254" y1="32.417" x2="254" y2="-348.583" gradientTransform="matrix(.04688 0 0 .04688 5.954 19.01)"><stop offset="0" stop-color="#e0e0e0"/><stop offset="1" stop-color="#eee"/></linearGradient><linearGradient id="s" gradientUnits="userSpaceOnUse" x1="254" y1="-31.083" x2="254" y2="-285.083" gradientTransform="matrix(.04688 0 0 .04688 -5.954 16.033)"><stop offset="0" stop-color="#42a5f5"/><stop offset="1" stop-color="#64b5f6"/></linearGradient><linearGradient id="t" gradientUnits="userSpaceOnUse" x1="254" y1="-31.083" x2="254" y2="-285.083" gradientTransform="matrix(.04688 0 0 .04688 0 16.033)"><stop offset="0" stop-color="#42a5f5"/><stop offset="1" stop-color="#64b5f6"/></linearGradient><linearGradient id="u" gradientUnits="userSpaceOnUse" x1="254" y1="95.917" x2="254" y2="-285.083" gradientTransform="matrix(.04688 0 0 .04688 5.954 16.033)"><stop offset="0" stop-color="#ffa726"/><stop offset="1" stop-color="#ffb74d"/></linearGradient><linearGradient id="v" gradientUnits="userSpaceOnUse" x1="254" y1="159.417" x2="254" y2="-221.583" gradientTransform="matrix(.04688 0 0 .04688 5.954 13.056)"><stop offset="0" stop-color="#42a5f5"/><stop offset="1" stop-color="#64b5f6"/></linearGradient><linearGradient id="w" gradientUnits="userSpaceOnUse" x1="254" y1="32.417" x2="254" y2="-221.583" gradientTransform="matrix(.04688 0 0 .04688 -5.954 13.056)"><stop offset="0" stop-color="#42a5f5"/><stop offset="1" stop-color="#64b5f6"/></linearGradient></defs><path d="M4.96 20.566h13.892v1.067H4.96zm0 0" fill="url(#a)"/><path d="M18.852 20.602h1.988v-.993h-1.988zm0 0" fill="url(#b)"/><path d="M4.96 20.602H2.978v.992H4.96zm0 0" fill="url(#c)"/><path d="M4.96 20.602H2.978v-.993H4.96zm0 0" fill="url(#d)"/><path d="M18.852 20.602h1.988v.992h-1.988zm0 0" fill="url(#e)"/><path d="M3.969 20.531a.992.992 0 0 1-.992-.996v-1.984H8.93v2.98zm0 0" fill="url(#f)"/><path d="M2.977 17.55v.376H8.93v-.375zm0 0" fill="#fff"/><path d="M14.883 20.531v-2.98h5.957v1.984c0 .55-.445.996-.996.996zm0 0" fill="url(#g)"/><path d="M8.93 2.668h5.953v2.977H8.93zm0 0" fill="url(#h)"/><path d="M3.969 2.668a.989.989 0 0 0-.992.992v1.985H8.93V2.668zm0 0" fill="url(#i)"/><path d="M14.883 2.668v2.977h5.957V3.66a.992.992 0 0 0-.996-.992zm0 0" fill="url(#j)"/><path d="M8.93 17.55h5.953v2.981H8.93zm0 0" fill="url(#k)"/><path d="M8.93 2.668v.371h5.953v-.371zm0 0" fill="#fff" fill-opacity=".392"/><path d="M19.844 20.531c.55 0 .996-.445.996-.996v-.37c0 .55-.445.991-.996.991h-4.961v.375zm0 0" fill-opacity=".235"/><path d="M14.883 17.55v.376h5.957v-.375zm0 0" fill="#fff"/><path d="M8.93 5.645h5.953V8.62H8.93zm0 0" fill="url(#l)"/><path d="M2.977 14.574H8.93v2.977H2.977zm0 0" fill="url(#m)"/><path d="M8.93 14.574h5.953v2.977H8.93zm0 0" fill="url(#n)"/><path d="M14.883 14.574h5.957v2.977h-5.957zm0 0" fill="url(#o)"/><path d="M2.977 11.598H8.93v2.976H2.977zm0 0" fill="url(#p)"/><path d="M8.93 11.598h5.953v2.976H8.93zm0 0" fill="url(#q)"/><path d="M14.883 11.598h5.957v2.976h-5.957zm0 0" fill="url(#r)"/><path d="M14.883 11.598v.375h5.957v-.375zm0 0" fill="#fff"/><path d="M2.977 8.621H8.93v2.977H2.977zm0 0" fill="url(#s)"/><path d="M8.93 8.621h5.953v2.977H8.93zm0 0" fill="url(#t)"/><path d="M14.883 8.621h5.957v2.977h-5.957zm0 0" fill="url(#u)"/><path d="M14.883 5.645h5.957V8.62h-5.957zm0 0" fill="url(#v)"/><path d="M14.883 8.25v.371h5.957V8.25zm0 0" fill-opacity=".235"/><path d="M8.93 5.645v.37h5.953v-.37zm0 0M2.977 8.621v.371H8.93v-.37zm0 0" fill="#fff" fill-opacity=".392"/><path d="M2.977 5.645H8.93V8.62H2.977zm0 0" fill="url(#w)"/><path d="M19.844 2.668c.55 0 .996.441.996.992v.371a.994.994 0 0 0-.996-.992h-4.961v-.371zm0 0M3.969 2.668a.989.989 0 0 0-.992.992v.371c0-.547.441-.992.992-.992h4.96v-.371zm0 0M2.977 5.645v.37H8.93v-.37zm0 0M8.93 8.621v.371h5.953v-.37zm0 0M2.977 11.598v.375H8.93v-.375zm0 0" fill="#fff" fill-opacity=".392"/><path d="M2.977 14.203v.371H8.93v-.37zm0 0M8.93 20.531v-.375h5.953v.375zm0 0M3.969 20.531a.992.992 0 0 1-.992-.996v-.37c0 .55.441.991.992.991h4.96v.375zm0 0" fill-opacity=".235"/><path d="M2.977 14.574v.375H8.93v-.375zm0 0" fill="#fff" fill-opacity=".392"/><path d="M8.93 14.574v.375h5.953v-.375zm0 0M8.93 17.55v.376h5.953v-.375zm0 0M14.883 14.574v.375h5.957v-.375zm0 0" fill="#fff"/><path d="M14.883 5.273v.372h5.957v-.372zm0 0" fill-opacity=".235"/><path d="M14.883 5.645v.37h5.957v-.37zm0 0M14.883 8.621v.371h5.957v-.37zm0 0" fill="#fff" fill-opacity=".392"/><path d="M14.883 11.227v.37h5.957v-.37zm0 0M8.93 5.273v.372h5.953v-.372zm0 0M2.977 5.273v.372H8.93v-.372zm0 0M2.977 11.227v.37H8.93v-.37zm0 0M8.93 11.227v.37h5.953v-.37zm0 0M8.93 8.25v.371h5.953V8.25zm0 0M2.977 8.25v.371H8.93V8.25zm0 0M8.93 14.203v.371h5.953v-.37zm0 0M8.93 17.18v.37h5.953v-.37zm0 0M2.977 17.18v.37H8.93v-.37zm0 0M14.883 17.18v.37h5.957v-.37zm0 0M14.883 14.203v.371h5.957v-.37zm0 0" fill-opacity=".235"/><path d="M8.93 11.598v.375h5.953v-.375zm0 0" fill="#fff" fill-opacity=".392"/><path d="M2.977 5.645H8.93V8.62H2.977zm11.906 0h5.957V8.62h-5.957zm0 2.976h5.957v2.977h-5.957zm-5.953 0h5.953v2.977H8.93zm-5.953 0H8.93v2.977H2.977zm11.906 2.977h5.957v2.976h-5.957zm-5.953 0h5.953v2.976H8.93zm-5.953 0H8.93v2.976H2.977zm11.906 2.976h5.957v2.977h-5.957zm-5.953 0h5.953v2.977H8.93zm-5.953 0H8.93v2.977H2.977zm5.953-8.93h5.953v2.977H8.93zm0 11.907h5.953v2.98H8.93zm5.953-14.883v2.977h5.957V3.66a.992.992 0 0 0-.996-.992zm-10.914 0a.989.989 0 0 0-.992.992v1.985H8.93V2.668zm4.96 0h5.954v2.977H8.93zm5.954 17.863v-2.98h5.957v1.984c0 .55-.445.996-.996.996zm-10.914 0a.992.992 0 0 1-.992-.996v-1.984H8.93v2.98zm0 0" fill="none" stroke-width=".14064" stroke-linecap="round" stroke="#212121"/></svg>
